X: 1212
T: An Dro
R: reel
M: 4/4
K: Dmajor
DEFE D3 A|G2 F2 D3 A|GAGF D2 AG|F2 D2 A4|
GAGF D3 A|G2 F2 D3 A|GAGF D2 AG|F2 D2 A4|
D2 EF E3 A|G2 FE FGFE|D2 EF E2 A2|GFEF D4|
D2 EF E3 A|G2 FE FGFE|D2 EF E2 A2|GFEF D4|

